Origami/32x32/apps/xnretro.svg

<svg width="32" height="32" version="1.1" viewBox="0 0 32 32" xmlns="http://www.w3.org/2000/svg">
 <path d="m21 4c-6.075132 0-12 5.924868-12 12 0-1.568536 2.237571 3.684501 3.458984 2.851562 1.358958-0.926736 1.795844-7.851562 3.541016-7.851562 0.200233-2.46e-4 0.400353 0.009497 0.599609 0.029297 0.0026 1.42e-4 0.005213 0.001753 0.007813 0.001953 5.790953 0.316983 9.392578 4.098639 9.392578 9.96875 0 1.748217-0.418828 3.395517-1.144531 4.863281 0.04575-0.02507 0.091329-0.050462 0.136719-0.076172 0.158316 0.191434 0.308398 0.361483 0.457031 0.523438a14 14 0 0 0 4.550781 -10.310547c-1.5e-4 -0.39219-0.023958-0.782018-0.056641-1.169922a14 14 0 0 0 -0.08789 -0.722656c-0.030226-0.220613-0.057061-0.441818-0.097657-0.660156a14 14 0 0 0 -0.148437 -0.664063c-0.053703-0.226788-0.105074-0.454257-0.169922-0.677734a14 14 0 0 0 -0.201172 -0.609375c-0.080456-0.236191-0.157083-0.473619-0.25-0.705078a14 14 0 0 0 -0.232422 -0.517578c-0.11046-0.245838-0.217222-0.4931664-0.341797-0.7324224a14 14 0 0 0 -0.263671 -0.4628906c-0.138131-0.2423202-0.273054-0.4865408-0.425782-0.7207031a14 14 0 0 0 -0.287109 -0.4003907c-0.171238-0.2433816-0.338195-0.4897644-0.525391-0.7226562a14 14 0 0 0 -0.183593 -0.2089844c-0.236849-0.2829842-0.477911-0.5629147-0.738282-0.828125-1.54575-0.786951-3.255692-2.1972026-4.990234-2.1972656z" style="fill:#ffc42e"/>
 <path d="m16.601562 10.03125c2.915635 0.30726 4.398438 2.862149 4.398438 5.96875 2.46e-4 0.200233-0.009497 0.400353-0.029297 0.599609-1.42e-4 0.0026-0.001753 0.005213-0.001953 0.007813-0.316983 5.790953-4.098639 9.392578-9.96875 9.392578-1.7482174 0-3.395517-0.418828-4.8632812-1.144531 0.0250659 0.04575 0.0504568 0.091329 0.0761718 0.136719-0.2884912 0.076294-0.4900139 0.156986-0.7167968 0.236328a14 14 0 0 0 7.5371092 4.445312c0.757301 0.120976 1.49626 0.233037 2.082031 0.28125a14 14 0 0 0 0.884766 0.044922c0.39219-1.5e-4 0.782018-0.023958 1.169922-0.056641a14 14 0 0 0 0.722656 -0.08789c0.220613-0.030226 0.441818-0.057061 0.660156-0.097657a14 14 0 0 0 0.664063 -0.148437c0.226788-0.053703 0.454257-0.105074 0.677734-0.169922a14 14 0 0 0 0.609375 -0.201172c0.236191-0.080456 0.473619-0.157083 0.705078-0.25a14 14 0 0 0 0.517578 -0.232422c0.245838-0.11046 0.493166-0.217222 0.732422-0.341797a14 14 0 0 0 0.462891 -0.263671c0.24232-0.138131 0.486541-0.273054 0.720703-0.425782a14 14 0 0 0 0.400391 -0.287109c0.243381-0.171238 0.489764-0.338195 0.722656-0.525391a14 14 0 0 0 0.208984 -0.183593c0.282985-0.236849 0.562915-0.477911 0.828125-0.738282 0.786951-1.54575 1.197203-3.255692 1.197266-4.990234 0-5.872084-4.604749-10.654623-10.398438-10.96875z" style="fill:#ff8514"/>
 <path d="M 7.3242188,5.0135078 C 6.6586219,5.5389814 6.0454323,6.1212144 5.490457,6.7517338 4.19166,8.2273249 3.2116971,9.9673755 2.625,11.863281 c -8.666e-4,0.0042 -0.00304,0.0075 -0.00391,0.01172 C 2.258588,13.640798 2.0010579,15.213458 2,16 c 1.497e-4,0.39219 0.023958,0.782018 0.056641,1.169922 0.023028,0.241606 0.052335,0.482573 0.087891,0.722656 0.030226,0.220613 0.057061,0.441818 0.097656,0.660156 0.044092,0.222524 0.093586,0.443944 0.1484375,0.664063 0.053703,0.226788 0.1050742,0.454257 0.1699219,0.677734 0.062393,0.204635 0.1294674,0.407814 0.2011719,0.609375 0.080456,0.236191 0.1570829,0.473619 0.25,0.705078 0.07397,0.174078 0.1514595,0.34664 0.2324218,0.517578 0.11046,0.245838 0.2172226,0.493166 0.3417969,0.732422 0.084947,0.155955 0.1728533,0.31028 0.2636719,0.462891 0.1381309,0.24232 0.2730534,0.486541 0.4257812,0.720703 0.093347,0.135137 0.1890651,0.268622 0.2871094,0.400391 0.1712382,0.243381 0.3381949,0.489764 0.5253906,0.722656 0.060504,0.07027 0.1217053,0.139932 0.1835938,0.208984 0.2368483,0.282985 0.4779109,0.562915 0.7382812,0.828125 C 7.5555156,26.589685 9.265458,26.999937 11,27 16.872084,27 21.654623,22.395251 21.96875,16.601562 21.66149,19.517197 19.106601,21 16,21 c -0.200233,2.46e-4 -0.400353,-0.0095 -0.599609,-0.0293 -0.0026,-1.42e-4 -0.0052,-0.0018 -0.0078,-0.002 C 9.6016251,20.651767 6,16.870111 6,11 6,9.2517826 6.1445312,6.1367188 6.1445312,6.1367188 c 0,0 1.7923694,0.3188009 1.2089844,-0.6642266 C 7.3475572,5.2915391 7.332039,5.1812728 7.3242188,5.0135078 Z" style="fill:#ff5757"/>
 <path d="m 16,22 c -1.167367,0 3.551409,-0.871376 2.661939,-1.448122 C 17.026545,19.491463 10.2,18.146341 10.2,16 c -2.46e-4,-0.200233 -0.1905,-0.400353 -0.1707,-0.599609 1.42e-4,-0.0026 0.0018,-0.0052 0.002,-0.0078 C 10.348283,9.601638 15.129889,5 21,5 c 1.748217,0 3.395517,0.418829 4.863281,1.144531 -0.02507,-0.04575 -0.05046,-0.09133 -0.07617,-0.136719 C 23.174227,3.443629 19.660897,2.004924 16,2 12.333417,2.0014 8.813696,3.441084 6.197266,6.009766 5.410315,7.555516 5.000063,9.265458 5,11 5,17.075132 9.924868,22 16,22 Z" style="fill:#baff41"/>
 <path d="m16.613281 11.03125c2.864296 0.290885 5.127651 2.59768 5.361328 5.478516 0.014275-0.169614 0.0256-0.339527 0.025391-0.509766 0-1.579873-0.615174-3.012473-1.613281-4.083984-1.166282-0.508123-2.438485-0.810978-3.773438-0.884766zm10.359375 10.429688c-0.06633 1.575185-0.453003 3.121106-1.169922 4.529296-2.61643 2.568682-6.136151 4.008366-9.802734 4.009766-2.784829-0.003746-5.48103-0.841767-7.7636719-2.369141-0.7304522-0.192341-1.4354031-0.446989-2.0996093-0.77539 0.025066 0.04575 0.050457 0.09133 0.076172 0.136719 2.6128821 2.564182 6.1262122 4.002888 9.7871092 4.007812 3.666583-0.0014 7.186304-1.441084 9.802734-4.009766 0.786951-1.54575 1.197203-3.255692 1.197266-4.990234 0-0.181941-0.01861-0.359286-0.02734-0.539062z" style="opacity:.2"/>
 <path d="M 2.0253906,16.507812 C 2.0193726,16.672133 2.0002219,16.835011 2,17 2.0014,20.666583 3.4410836,24.186304 6.0097656,26.802734 7.5555156,27.589685 9.265458,27.999937 11,28 c 5.868139,0 10.648815,-4.598526 10.96875,-10.386719 -0.07714,0.75956 -0.301118,1.474096 -0.634766,2.123047 C 19.802746,23.9691 15.761126,27 11,27 9.265458,26.999937 7.5555156,26.589685 6.0097656,25.802734 3.5603521,23.30779 2.1534524,19.98959 2.0253906,16.507812 Z" style="opacity:.2"/>
 <path d="m16 10c-2.32669 0-4.338623 1.327672-5.333984 3.263672-0.35603 0.984165-0.574411 2.031115-0.634766 3.123047 0.30726-3.025536 2.862149-5.386719 5.96875-5.386719 0.200233-2.46e-4 0.400353 0.0095 0.599609 0.0293 0.0026 1.42e-4 0.0052 0.0018 0.0078 2e-3 5.608349 0.306988 10.087468 4.804644 10.365234 10.419922 0.006334-0.151209 0.027357-0.29847 0.027357-0.451222 0-5.870111-4.601625-10.651767-10.392578-10.96875-0.0026-2e-4 -0.0052-0.0018-0.0078-2e-3 -0.199269-0.019753-0.399389-0.029496-0.599622-0.02925zm13.974609 6.492188c-0.118324 3.230801-1.348858 6.310458-3.482421 8.732421-0.175509 0.564441-0.378388 1.116186-0.636719 1.638672 0.04575-0.02507 0.09133-0.05046 0.136719-0.07617 2.564182-2.612886 4.002888-6.126214 4.007812-9.787111-6.5e-5 -0.170246-0.01916-0.338275-0.02539-0.507812z" style="opacity:.2"/>
 <path d="m 21,5 c -5.870111,0 -10.651767,4.6016251 -10.96875,10.392578 -2e-4,0.0026 -0.0018,0.0052 -0.002,0.0078 C 10.009497,15.599647 9.999754,15.799767 10,16 c 0,0.165561 0.01224,0.328063 0.02539,0.490234 0.0025,-0.02988 9.4e-4,-0.06 0.0039,-0.08984 1.42e-4,-0.0026 0.0018,-0.0052 0.002,-0.0078 C 10.348233,10.601625 15.129889,6 21,6 c 1.748217,0 3.395517,0.4188292 4.863281,1.1445312 -0.02507,-0.04575 -0.05046,-0.09133 -0.07617,-0.1367187 C 25.161835,6.3941926 24.481759,5.8496311 23.763672,5.3691406 22.879969,5.1364451 21.957098,5 21,5 Z M 5.0273438,11.539062 C 5.0208647,11.692935 5.0000056,11.84564 5,12 5,17.868139 9.5985261,22.648815 15.386719,22.96875 13.89983,22.817748 12.577813,22.119451 11.613281,21.083984 7.8794942,19.45726 5.2353134,15.820317 5.0273438,11.539062 Z" style="opacity:.2"/>
 <path d="m22 16a6 6 0 0 1 -6 6 6 6 0 0 1 -6 -6 6 6 0 0 1 6 -6 6 6 0 0 1 6 6z" style="fill:#555555"/>
 <path d="M 10.025391 16.498047 A 6 6 0 0 0 10 17 A 6 6 0 0 0 16 23 A 6 6 0 0 0 22 17 A 6 6 0 0 0 21.974609 16.501953 A 6 6 0 0 1 16 22 A 6 6 0 0 1 10.025391 16.498047 z" style="opacity:.2"/>
 <path d="M 16 2 A 14 14 0 0 0 2 16 A 14 14 0 0 0 2.0214844 16.585938 A 14 14 0 0 1 16 3 A 14 14 0 0 1 29.978516 16.414062 A 14 14 0 0 0 30 16 A 14 14 0 0 0 16 2 z" style="fill:#ffffff;opacity:.2"/>
</svg>

<svg xmlns="http://www.w3.org/2000/svg" width="32" height="32" version="1.1" viewBox="0 0 32 32">
 <path style="fill:#ffc42e" d="M 21 4 C 14.924868 4 9 9.924868 9 16 C 9 14.431464 11.237571 19.684501 12.458984 18.851562 C 13.817942 17.924826 14.254828 11 16 11 C 16.200233 10.999754 16.400353 11.009497 16.599609 11.029297 C 16.602209 11.029439 16.604822 11.03105 16.607422 11.03125 C 22.398375 11.348233 26 15.129889 26 21 C 26 22.748217 25.581172 24.395517 24.855469 25.863281 C 24.901219 25.838211 24.946798 25.812819 24.992188 25.787109 C 25.150504 25.978543 25.300586 26.148592 25.449219 26.310547 A 14 14 0 0 0 30 16 C 29.99985 15.60781 29.976042 15.217982 29.943359 14.830078 A 14 14 0 0 0 29.855469 14.107422 C 29.825243 13.886809 29.798408 13.665604 29.757812 13.447266 A 14 14 0 0 0 29.609375 12.783203 C 29.555672 12.556415 29.504301 12.328946 29.439453 12.105469 A 14 14 0 0 0 29.238281 11.496094 C 29.157825 11.259903 29.081198 11.022475 28.988281 10.791016 A 14 14 0 0 0 28.755859 10.273438 C 28.645399 10.0276 28.538637 9.7802716 28.414062 9.5410156 A 14 14 0 0 0 28.150391 9.078125 C 28.01226 8.8358048 27.877337 8.5915842 27.724609 8.3574219 A 14 14 0 0 0 27.4375 7.9570312 C 27.266262 7.7136496 27.099305 7.4672668 26.912109 7.234375 A 14 14 0 0 0 26.728516 7.0253906 C 26.491667 6.7424064 26.250605 6.4624759 25.990234 6.1972656 C 24.444484 5.4103146 22.734542 4.000063 21 4 z"/>
 <path style="fill:#ff8514" d="M 16.601562 10.03125 C 19.517197 10.33851 21 12.893399 21 16 C 21.000246 16.200233 20.990503 16.400353 20.970703 16.599609 C 20.970561 16.602209 20.96895 16.604822 20.96875 16.607422 C 20.651767 22.398375 16.870111 26 11 26 C 9.2517826 26 7.604483 25.581172 6.1367188 24.855469 C 6.1617847 24.901219 6.1871756 24.946798 6.2128906 24.992188 C 5.9243994 25.068482 5.7228767 25.149174 5.4960938 25.228516 A 14 14 0 0 0 13.033203 29.673828 C 13.790504 29.794804 14.529463 29.906865 15.115234 29.955078 A 14 14 0 0 0 16 30 C 16.39219 29.99985 16.782018 29.976042 17.169922 29.943359 A 14 14 0 0 0 17.892578 29.855469 C 18.113191 29.825243 18.334396 29.798408 18.552734 29.757812 A 14 14 0 0 0 19.216797 29.609375 C 19.443585 29.555672 19.671054 29.504301 19.894531 29.439453 A 14 14 0 0 0 20.503906 29.238281 C 20.740097 29.157825 20.977525 29.081198 21.208984 28.988281 A 14 14 0 0 0 21.726562 28.755859 C 21.9724 28.645399 22.219728 28.538637 22.458984 28.414062 A 14 14 0 0 0 22.921875 28.150391 C 23.164195 28.01226 23.408416 27.877337 23.642578 27.724609 A 14 14 0 0 0 24.042969 27.4375 C 24.28635 27.266262 24.532733 27.099305 24.765625 26.912109 A 14 14 0 0 0 24.974609 26.728516 C 25.257594 26.491667 25.537524 26.250605 25.802734 25.990234 C 26.589685 24.444484 26.999937 22.734542 27 21 C 27 15.127916 22.395251 10.345377 16.601562 10.03125 z"/>
 <path style="fill:#ff5757" d="M 7.3242188,5.0135078 C 6.6586219,5.5389814 6.0454323,6.1212144 5.490457,6.7517338 4.19166,8.2273249 3.2116971,9.9673755 2.625,11.863281 c -8.666e-4,0.0042 -0.00304,0.0075 -0.00391,0.01172 C 2.258588,13.640798 2.0010579,15.213458 2,16 c 1.497e-4,0.39219 0.023958,0.782018 0.056641,1.169922 0.023028,0.241606 0.052335,0.482573 0.087891,0.722656 0.030226,0.220613 0.057061,0.441818 0.097656,0.660156 0.044092,0.222524 0.093586,0.443944 0.1484375,0.664063 0.053703,0.226788 0.1050742,0.454257 0.1699219,0.677734 0.062393,0.204635 0.1294674,0.407814 0.2011719,0.609375 0.080456,0.236191 0.1570829,0.473619 0.25,0.705078 0.07397,0.174078 0.1514595,0.34664 0.2324218,0.517578 0.11046,0.245838 0.2172226,0.493166 0.3417969,0.732422 0.084947,0.155955 0.1728533,0.31028 0.2636719,0.462891 0.1381309,0.24232 0.2730534,0.486541 0.4257812,0.720703 0.093347,0.135137 0.1890651,0.268622 0.2871094,0.400391 0.1712382,0.243381 0.3381949,0.489764 0.5253906,0.722656 0.060504,0.07027 0.1217053,0.139932 0.1835938,0.208984 0.2368483,0.282985 0.4779109,0.562915 0.7382812,0.828125 C 7.5555156,26.589685 9.265458,26.999937 11,27 16.872084,27 21.654623,22.395251 21.96875,16.601562 21.66149,19.517197 19.106601,21 16,21 c -0.200233,2.46e-4 -0.400353,-0.0095 -0.599609,-0.0293 -0.0026,-1.42e-4 -0.0052,-0.0018 -0.0078,-0.002 C 9.6016251,20.651767 6,16.870111 6,11 6,9.2517826 6.1445312,6.1367188 6.1445312,6.1367188 c 0,0 1.7923694,0.3188009 1.2089844,-0.6642266 C 7.3475572,5.2915391 7.332039,5.1812728 7.3242188,5.0135078 Z"/>
 <path style="fill:#baff41" d="m 16,22 c -1.167367,0 3.551409,-0.871376 2.661939,-1.448122 C 17.026545,19.491463 10.2,18.146341 10.2,16 c -2.46e-4,-0.200233 -0.1905,-0.400353 -0.1707,-0.599609 1.42e-4,-0.0026 0.0018,-0.0052 0.002,-0.0078 C 10.348283,9.601638 15.129889,5 21,5 c 1.748217,0 3.395517,0.418829 4.863281,1.144531 -0.02507,-0.04575 -0.05046,-0.09133 -0.07617,-0.136719 C 23.174227,3.443629 19.660897,2.004924 16,2 12.333417,2.0014 8.813696,3.441084 6.197266,6.009766 5.410315,7.555516 5.000063,9.265458 5,11 5,17.075132 9.924868,22 16,22 Z"/>
 <g>
  <path style="opacity:0.2" d="m 16.613281,11.03125 c 2.864296,0.290885 5.127651,2.59768 5.361328,5.478516 C 21.988884,16.340152 22.000209,16.170239 22,16 22,14.420127 21.384826,12.987527 20.386719,11.916016 19.220437,11.407893 17.948234,11.105038 16.613281,11.03125 Z m 10.359375,10.429688 c -0.06633,1.575185 -0.453003,3.121106 -1.169922,4.529296 C 23.186304,28.558916 19.666583,29.9986 16,30 13.215171,29.996254 10.51897,29.158233 8.2363281,27.630859 7.5058759,27.438518 6.800925,27.18387 6.1367188,26.855469 c 0.025066,0.04575 0.050457,0.09133 0.076172,0.136719 C 8.8257729,29.55637 12.339103,30.995076 16,31 19.666583,30.9986 23.186304,29.558916 25.802734,26.990234 26.589685,25.444484 26.999937,23.734542 27,22 27,21.818059 26.98139,21.640714 26.97266,21.460938 Z"/>
  <path style="opacity:0.2" d="M 2.0253906,16.507812 C 2.0193726,16.672133 2.0002219,16.835011 2,17 2.0014,20.666583 3.4410836,24.186304 6.0097656,26.802734 7.5555156,27.589685 9.265458,27.999937 11,28 c 5.868139,0 10.648815,-4.598526 10.96875,-10.386719 -0.07714,0.75956 -0.301118,1.474096 -0.634766,2.123047 C 19.802746,23.9691 15.761126,27 11,27 9.265458,26.999937 7.5555156,26.589685 6.0097656,25.802734 3.5603521,23.30779 2.1534524,19.98959 2.0253906,16.507812 Z"/>
  <path style="opacity:0.2" d="m 16,10 c -2.32669,0 -4.338623,1.327672 -5.333984,3.263672 -0.35603,0.984165 -0.574411,2.031115 -0.634766,3.123047 C 10.33851,13.361183 12.893399,11 16,11 c 0.200233,-2.46e-4 0.400353,0.0095 0.599609,0.0293 0.0026,1.42e-4 0.0052,0.0018 0.0078,0.002 5.608349,0.306988 10.087468,4.804644 10.365234,10.419922 C 26.978977,21.300013 27,21.152752 27,21 27,15.129889 22.398375,10.348233 16.607422,10.03125 c -0.0026,-2e-4 -0.0052,-0.0018 -0.0078,-0.002 C 16.400353,10.009497 16.200233,9.999754 16,10 Z m 13.974609,6.492188 c -0.118324,3.230801 -1.348858,6.310458 -3.482421,8.732421 -0.175509,0.564441 -0.378388,1.116186 -0.636719,1.638672 0.04575,-0.02507 0.09133,-0.05046 0.136719,-0.07617 C 28.55637,24.174225 29.995076,20.660897 30,17 c -6.5e-5,-0.170246 -0.01916,-0.338275 -0.02539,-0.507812 z"/>
  <path style="opacity:0.2" d="m 21,5 c -5.870111,0 -10.651767,4.6016251 -10.96875,10.392578 -2e-4,0.0026 -0.0018,0.0052 -0.002,0.0078 C 10.009497,15.599647 9.999754,15.799767 10,16 c 0,0.165561 0.01224,0.328063 0.02539,0.490234 0.0025,-0.02988 9.4e-4,-0.06 0.0039,-0.08984 1.42e-4,-0.0026 0.0018,-0.0052 0.002,-0.0078 C 10.348233,10.601625 15.129889,6 21,6 c 1.748217,0 3.395517,0.4188292 4.863281,1.1445312 -0.02507,-0.04575 -0.05046,-0.09133 -0.07617,-0.1367187 C 25.161835,6.3941926 24.481759,5.8496311 23.763672,5.3691406 22.879969,5.1364451 21.957098,5 21,5 Z M 5.0273438,11.539062 C 5.0208647,11.692935 5.0000056,11.84564 5,12 5,17.868139 9.5985261,22.648815 15.386719,22.96875 13.89983,22.817748 12.577813,22.119451 11.613281,21.083984 7.8794942,19.45726 5.2353134,15.820317 5.0273438,11.539062 Z"/>
 </g>
 <path style="fill:#555555" d="m 22,16 a 6,6 0 0 1 -6,6 6,6 0 0 1 -6,-6 6,6 0 0 1 6,-6 6,6 0 0 1 6,6 z"/>
 <path style="opacity:0.2" d="M 10.025391 16.498047 A 6 6 0 0 0 10 17 A 6 6 0 0 0 16 23 A 6 6 0 0 0 22 17 A 6 6 0 0 0 21.974609 16.501953 A 6 6 0 0 1 16 22 A 6 6 0 0 1 10.025391 16.498047 z"/>
 <path style="opacity:0.2;fill:#ffffff" d="M 16 2 A 14 14 0 0 0 2 16 A 14 14 0 0 0 2.0214844 16.585938 A 14 14 0 0 1 16 3 A 14 14 0 0 1 29.978516 16.414062 A 14 14 0 0 0 30 16 A 14 14 0 0 0 16 2 z"/>
</svg>
